;FLAVOR:Marlin
;TIME:246
;Filament used: 0.173345m
;Layer height: 0.2
;MINX:90.5
;MINY:96
;MINZ:0.2
;MAXX:144.5
;MAXY:139
;MAXZ:2.8
;LINEARADVANCEPROCESSED
;Generated with Cura_SteamEngine 4.4.1
M140 S55
M105
M190 S55
M104 S205
M105
M109 S205
M82 ;absolute extrusion mode
G28 ;Home
M420 S1
G92 E0
G1 F9000 X0 Y-15
G1 F200 E15
G92 E0
G92 E0
G92 E0
G1 F1800 E-0.6
;LAYER_COUNT:14
M900 K0.030000 T0 ;added by LinearAdvanceSettingPlugin
;LAYER:0
M117 INDICATOR-Layer0
M107
M204 S500
G0 F6000 X94.889 Y103.324 Z0.2
;TYPE:SKIRT
G1 F1800 E0
G1 F1200 X95.306 Y102.962 E0.01837
G1 X95.679 Y102.654 E0.03446
G1 X96.094 Y102.328 E0.05201
G1 X96.782 Y101.814 E0.08057
G1 X98.888 Y100.191 E0.169
G1 X99.861 Y99.404 E0.21063
G1 X100.14 Y99.185 E0.22242
G1 X100.453 Y98.948 E0.23548
G1 X101.12 Y98.481 E0.26256
G1 X101.42 Y98.287 E0.27445
G1 X102.133 Y97.863 E0.30204
G1 X102.313 Y97.765 E0.30885
G1 X103.023 Y97.411 E0.33524
G1 X103.362 Y97.257 E0.34763
G1 X104.406 Y96.846 E0.38494
G1 X104.748 Y96.731 E0.39694
G1 X105.673 Y96.464 E0.42897
G1 X106.021 Y96.38 E0.44087
G1 X107.157 Y96.168 E0.47931
G1 X107.542 Y96.117 E0.49223
G1 X108.365 Y96.04 E0.51972
G1 X108.577 Y96.028 E0.52678
G1 X109.055 Y96.011 E0.54269
G1 X109.818 Y96.001 E0.56807
G1 X109.965 Y96 E0.57296
G1 X129.21 Y96.005 E1.21305
G1 X129.357 Y96.006 E1.21794
G1 X129.872 Y96.013 E1.23507
G1 X130.575 Y96.045 E1.25847
G1 X131.141 Y96.089 E1.27736
G1 X132.072 Y96.202 E1.30855
G1 X132.543 Y96.29 E1.32449
G1 X132.925 Y96.37 E1.33747
G1 X133.771 Y96.582 E1.36648
G1 X133.965 Y96.639 E1.3732
G1 X134.726 Y96.893 E1.39988
G1 X135.062 Y97.019 E1.41182
G1 X136.037 Y97.44 E1.44714
G1 X136.374 Y97.605 E1.45962
G1 X137.322 Y98.128 E1.49563
G1 X137.639 Y98.324 E1.50803
G1 X138.504 Y98.917 E1.54291
G1 X138.786 Y99.131 E1.55468
G1 X139.471 Y99.696 E1.58422
G1 X139.623 Y99.832 E1.591
G1 X140.146 Y100.332 E1.61507
G1 X140.387 Y100.578 E1.62652
G1 X140.953 Y101.202 E1.65454
G1 X141.084 Y101.358 E1.66132
G1 X141.566 Y101.976 E1.68738
G1 X141.782 Y102.274 E1.69963
G1 X142.403 Y103.231 E1.73757
G1 X142.601 Y103.574 E1.75074
G1 X143.089 Y104.523 E1.78623
G1 X143.243 Y104.862 E1.79862
G1 X143.648 Y105.888 E1.83531
G1 X143.763 Y106.228 E1.84724
G1 X144.036 Y107.172 E1.87993
G1 X144.119 Y107.516 E1.8917
G1 X144.296 Y108.411 E1.92204
G1 X144.327 Y108.611 E1.92877
G1 X144.42 Y109.392 E1.95493
G1 X144.453 Y109.792 E1.96828
G1 X144.489 Y110.549 E1.99349
G1 X144.499 Y111.295 E2.0183
G1 X144.5 Y111.451 E2.02349
G1 X144.49 Y124.072 E2.44327
G1 X144.477 Y124.607 E2.46107
G1 X144.447 Y125.213 E2.48125
G1 X144.321 Y126.41 E2.52128
G1 X144.271 Y126.722 E2.53179
G1 X144.033 Y127.838 E2.56974
G1 X143.93 Y128.221 E2.58293
G1 X143.607 Y129.226 E2.61804
G1 X143.481 Y129.562 E2.62998
G1 X143.066 Y130.525 E2.66486
G1 X142.902 Y130.861 E2.67729
G1 X142.368 Y131.829 E2.71406
G1 X142.171 Y132.147 E2.7265
G1 X141.583 Y133.004 E2.76107
G1 X141.369 Y133.286 E2.77285
G1 X140.804 Y133.971 E2.80238
G1 X140.668 Y134.123 E2.80916
G1 X140.153 Y134.66 E2.83391
G1 X139.903 Y134.904 E2.84553
G1 X139.304 Y135.447 E2.87242
G1 X139.146 Y135.58 E2.87929
G1 X138.519 Y136.07 E2.90576
G1 X138.228 Y136.281 E2.91771
G1 X137.258 Y136.91 E2.95616
G1 X136.914 Y137.108 E2.96936
G1 X135.977 Y137.589 E3.00439
G1 X135.638 Y137.743 E3.01678
G1 X134.603 Y138.151 E3.05378
G1 X134.262 Y138.266 E3.06575
G1 X133.321 Y138.538 E3.09833
G1 X132.972 Y138.622 E3.11027
G1 X131.843 Y138.832 E3.14846
G1 X131.458 Y138.883 E3.16138
G1 X130.635 Y138.96 E3.18887
G1 X130.423 Y138.972 E3.19594
G1 X129.945 Y138.989 E3.21184
G1 X129.182 Y138.999 E3.23722
G1 X129.032 Y139 E3.24221
G1 X109.444 Y138.99 E3.89371
G1 X108.905 Y138.976 E3.91165
G1 X108.28 Y138.945 E3.93246
G1 X107.086 Y138.821 E3.97239
G1 X106.78 Y138.772 E3.98269
G1 X105.662 Y138.533 E4.02072
G1 X105.279 Y138.43 E4.03391
G1 X104.274 Y138.107 E4.06902
G1 X103.938 Y137.981 E4.08095
G1 X102.951 Y137.555 E4.11671
G1 X102.613 Y137.389 E4.12923
G1 X101.677 Y136.871 E4.16481
G1 X101.36 Y136.675 E4.17721
G1 X100.413 Y136.018 E4.21555
G1 X100.015 Y135.71 E4.23228
G1 X99.587 Y135.362 E4.25063
G1 X97.824 Y133.851 E4.32786
G1 X95.834 Y132.246 E4.41289
G1 X95.674 Y132.115 E4.41977
G1 X95.378 Y131.867 E4.43261
G1 X94.867 Y131.412 E4.45537
G1 X94.609 Y131.167 E4.4672
G1 X93.71 Y130.204 E4.51102
G1 X93.465 Y129.908 E4.5238
G1 X92.898 Y129.161 E4.55499
G1 X92.539 Y128.607 E4.57695
G1 X92.398 Y128.375 E4.58598
G1 X91.945 Y127.553 E4.6172
G1 X91.69 Y127.002 E4.63739
G1 X91.532 Y126.634 E4.65071
G1 X91.199 Y125.757 E4.68191
G1 X91.032 Y125.203 E4.70116
G1 X90.964 Y124.955 E4.70971
G1 X90.754 Y124.041 E4.7409
G1 X90.66 Y123.433 E4.76136
G1 X90.614 Y123.071 E4.7735
G1 X90.528 Y121.912 E4.81215
G1 X90.503 Y120.707 E4.85224
G1 X90.501 Y120.481 E4.85976
G1 X90.5 Y114.081 E5.07262
G1 X90.501 Y113.909 E5.07834
G1 X90.515 Y113.002 E5.10851
G1 X90.609 Y111.73 E5.15094
G1 X90.675 Y111.231 E5.16768
G1 X90.837 Y110.307 E5.19888
G1 X91.022 Y109.586 E5.22364
G1 X91.091 Y109.35 E5.23181
G1 X91.563 Y108.048 E5.27788
G1 X91.704 Y107.724 E5.28963
G1 X92.114 Y106.88 E5.32084
G1 X92.441 Y106.317 E5.34249
G1 X92.64 Y105.996 E5.35505
G1 X93.168 Y105.221 E5.38624
G1 X93.903 Y104.334 E5.42456
G1 X94.224 Y103.986 E5.44031
G1 X94.889 Y103.324 E5.47151
G0 F6000 X95.172 Y103.608
G1 F1200 X95.561 Y103.27 E5.48865
G1 X95.934 Y102.962 E5.50474
G1 X96.334 Y102.648 E5.52166
G1 X97.025 Y102.131 E5.55036
G1 X99.124 Y100.515 E5.63847
G1 X100.112 Y99.715 E5.68075
G1 X100.381 Y99.504 E5.69212
G1 X100.694 Y99.267 E5.70518
G1 X101.337 Y98.817 E5.73128
G1 X101.637 Y98.623 E5.74316
G1 X102.324 Y98.214 E5.76976
G1 X102.504 Y98.116 E5.77657
G1 X103.189 Y97.775 E5.80202
G1 X103.528 Y97.621 E5.81441
G1 X104.534 Y97.225 E5.85037
G1 X104.876 Y97.11 E5.86237
G1 X105.767 Y96.853 E5.89321
G1 X106.115 Y96.769 E5.90512
G1 X107.21 Y96.565 E5.94216
G1 X107.595 Y96.514 E5.95508
G1 X108.388 Y96.439 E5.98157
G1 X108.6 Y96.427 E5.98864
G1 X109.06 Y96.411 E6.00395
G1 X109.823 Y96.401 E6.02933
G1 X109.965 Y96.4 E6.03405
G1 X129.21 Y96.405 E6.67414
G1 X129.351 Y96.406 E6.67883
G1 X129.866 Y96.413 E6.69596
G1 X130.544 Y96.444 E6.71853
G1 X131.11 Y96.488 E6.73742
G1 X132.461 Y96.681 E6.78281
G1 X132.843 Y96.761 E6.79579
G1 X133.658 Y96.966 E6.82374
G1 X133.852 Y97.023 E6.83046
G1 X134.586 Y97.268 E6.8562
G1 X134.922 Y97.394 E6.86814
G1 X135.861 Y97.799 E6.90215
G1 X136.198 Y97.964 E6.91463
G1 X137.111 Y98.468 E6.94931
G1 X137.428 Y98.664 E6.96171
G1 X138.262 Y99.236 E6.99535
G1 X138.544 Y99.45 E7.00712
G1 X139.204 Y99.994 E7.03557
G1 X139.356 Y100.13 E7.04235
G1 X139.86 Y100.612 E7.06555
G1 X140.101 Y100.858 E7.077
G1 X140.646 Y101.459 E7.10399
G1 X140.777 Y101.615 E7.11076
G1 X141.243 Y102.211 E7.13592
G1 X141.459 Y102.509 E7.14817
G1 X142.056 Y103.431 E7.1847
G1 X142.254 Y103.774 E7.19787
G1 X142.725 Y104.689 E7.2321
G1 X142.879 Y105.028 E7.24448
G1 X143.269 Y106.016 E7.27981
G1 X143.384 Y106.356 E7.29175
G1 X143.647 Y107.266 E7.32326
G1 X143.73 Y107.61 E7.33503
G1 X143.901 Y108.472 E7.36425
G1 X143.932 Y108.672 E7.37099
G1 X144.021 Y109.424 E7.39617
G1 X144.054 Y109.824 E7.40952
G1 X144.089 Y110.554 E7.43383
G1 X144.099 Y111.3 E7.45864
G1 X144.1 Y111.45 E7.46363
G1 X144.09 Y124.071 E7.88341
G1 X144.077 Y124.587 E7.90058
G1 X144.047 Y125.193 E7.92076
G1 X143.926 Y126.346 E7.95932
G1 X143.876 Y126.658 E7.96983
G1 X143.646 Y127.734 E8.00642
G1 X143.543 Y128.117 E8.01961
G1 X143.232 Y129.086 E8.05346
G1 X143.106 Y129.422 E8.0654
G1 X142.707 Y130.35 E8.09899
G1 X142.543 Y130.686 E8.11143
G1 X142.028 Y131.618 E8.14685
G1 X141.831 Y131.936 E8.15929
G1 X141.264 Y132.762 E8.19261
G1 X141.05 Y133.044 E8.20438
G1 X140.506 Y133.704 E8.23283
G1 X140.37 Y133.856 E8.23962
G1 X139.874 Y134.374 E8.26347
G1 X139.624 Y134.618 E8.27509
G1 X139.046 Y135.141 E8.30101
G1 X138.888 Y135.274 E8.30788
G1 X138.284 Y135.747 E8.3334
G1 X137.993 Y135.958 E8.34535
G1 X137.059 Y136.563 E8.38237
G1 X136.715 Y136.761 E8.39557
G1 X135.811 Y137.225 E8.42937
G1 X135.472 Y137.379 E8.44175
G1 X134.475 Y137.772 E8.47739
G1 X134.134 Y137.887 E8.48936
G1 X133.227 Y138.149 E8.52076
G1 X132.878 Y138.233 E8.5327
G1 X131.79 Y138.435 E8.56951
G1 X131.405 Y138.486 E8.58242
G1 X130.612 Y138.561 E8.60892
G1 X130.4 Y138.573 E8.61598
G1 X129.94 Y138.589 E8.63129
G1 X129.177 Y138.599 E8.65667
G1 X129.033 Y138.6 E8.66146
G1 X109.445 Y138.59 E9.31296
G1 X108.925 Y138.577 E9.33026
G1 X108.3 Y138.546 E9.35107
G1 X107.149 Y138.426 E9.38956
G1 X106.843 Y138.377 E9.39987
G1 X105.766 Y138.146 E9.4365
G1 X105.383 Y138.043 E9.4497
G1 X104.414 Y137.732 E9.48354
G1 X104.078 Y137.606 E9.49548
G1 X103.127 Y137.195 E9.52994
G1 X102.789 Y137.029 E9.54246
G1 X101.888 Y136.531 E9.5767
G1 X101.571 Y136.335 E9.5891
G1 X100.658 Y135.702 E9.62605
G1 X100.26 Y135.394 E9.64279
G1 X99.848 Y135.058 E9.66047
G1 X98.106 Y133.565 E9.73678
G1 X96.085 Y131.935 E9.82313
G1 X95.93 Y131.808 E9.8298
G1 X95.634 Y131.56 E9.84264
G1 X95.143 Y131.121 E9.86455
G1 X94.885 Y130.876 E9.87638
G1 X94.018 Y129.949 E9.9186
G1 X93.773 Y129.653 E9.93138
G1 X93.218 Y128.919 E9.96198
G1 X92.881 Y128.399 E9.98259
G1 X92.74 Y128.167 E9.99162
G1 X92.296 Y127.36 E10.02226
G1 X92.058 Y126.844 E10.04116
G1 X91.9 Y126.476 E10.05448
G1 X91.574 Y125.615 E10.0851
G1 X91.417 Y125.097 E10.1031
G1 X91.349 Y124.849 E10.11166
G1 X91.145 Y123.951 E10.14228
G1 X91.057 Y123.382 E10.16143
G1 X91.011 Y123.02 E10.17357
G1 X90.928 Y121.904 E10.21079
G1 X90.903 Y120.699 E10.25088
G1 X90.901 Y120.481 E10.25813
G1 X90.9 Y114.081 E10.471
G1 X90.901 Y113.915 E10.47652
G1 X90.915 Y113.008 E10.50669
G1 X91.006 Y111.782 E10.54758
G1 X91.072 Y111.283 E10.56432
G1 X91.232 Y110.377 E10.59492
G1 X91.406 Y109.698 E10.61823
G1 X91.475 Y109.462 E10.62641
G1 X91.929 Y108.207 E10.6708
G1 X92.07 Y107.883 E10.68255
G1 X92.474 Y107.056 E10.71316
G1 X92.781 Y106.528 E10.73348
G1 X92.98 Y106.207 E10.74604
G1 X93.498 Y105.446 E10.77666
G1 X94.198 Y104.605 E10.81305
G1 X94.519 Y104.257 E10.8288
G1 X95.172 Y103.608 E10.85942
G0 F6000 X95.454 Y103.892
G1 F1200 X95.815 Y103.579 E10.87531
G1 X96.188 Y103.271 E10.8914
G1 X96.573 Y102.968 E10.90769
G1 X97.303 Y102.422 E10.93801
G1 X99.38 Y100.822 E11.02522
G1 X100.364 Y100.026 E11.06731
G1 X100.623 Y99.823 E11.07826
G1 X100.936 Y99.586 E11.09131
G1 X101.554 Y99.153 E11.11641
G1 X101.854 Y98.959 E11.1283
G1 X102.516 Y98.566 E11.1539
G1 X102.696 Y98.468 E11.16072
G1 X103.354 Y98.139 E11.18519
G1 X103.693 Y97.985 E11.19757
G1 X104.661 Y97.604 E11.23217
G1 X105.003 Y97.489 E11.24417
G1 X105.861 Y97.242 E11.27387
G1 X106.209 Y97.158 E11.28577
G1 X107.263 Y96.961 E11.32144
G1 X107.648 Y96.91 E11.33435
G1 X108.411 Y96.838 E11.35984
G1 X108.623 Y96.826 E11.36691
G1 X109.065 Y96.811 E11.38162
G1 X109.828 Y96.801 E11.407
G1 X109.965 Y96.8 E11.41155
G1 X129.21 Y96.805 E12.05164
G1 X129.346 Y96.806 E12.05617
G1 X129.861 Y96.813 E12.0733
G1 X130.513 Y96.843 E12.09501
G1 X131.079 Y96.887 E12.11389
G1 X132.379 Y97.073 E12.15757
G1 X132.761 Y97.153 E12.17055
G1 X133.545 Y97.35 E12.19743
G1 X133.739 Y97.407 E12.20416
G1 X134.445 Y97.642 E12.22891
G1 X134.781 Y97.768 E12.24084
G1 X135.685 Y98.158 E12.27359
G1 X136.022 Y98.323 E12.28607
G1 X136.901 Y98.808 E12.31946
G1 X137.218 Y99.004 E12.33186
G1 X138.02 Y99.555 E12.36422
G1 X138.302 Y99.769 E12.37599
G1 X138.937 Y100.293 E12.40338
G1 X139.089 Y100.429 E12.41016
G1 X139.574 Y100.892 E12.43246
G1 X139.815 Y101.138 E12.44392
G1 X140.34 Y101.717 E12.46991
G1 X140.471 Y101.873 E12.47669
G1 X140.919 Y102.446 E12.50088
G1 X141.135 Y102.744 E12.51312
G1 X141.71 Y103.631 E12.54828
G1 X141.908 Y103.974 E12.56145
G1 X142.361 Y104.854 E12.59437
G1 X142.515 Y105.193 E12.60675
G1 X142.89 Y106.144 E12.64075
G1 X143.005 Y106.484 E12.65269
G1 X143.258 Y107.36 E12.68302
G1 X143.341 Y107.704 E12.69479
G1 X143.506 Y108.534 E12.72294
G1 X143.537 Y108.734 E12.72967
G1 X143.622 Y109.457 E12.75388
G1 X143.655 Y109.857 E12.76723
G1 X143.689 Y110.559 E12.7906
G1 X143.699 Y111.305 E12.81542
G1 X143.7 Y111.45 E12.82024
G1 X143.69 Y124.071 E13.24002
G1 X143.678 Y124.567 E13.25652
G1 X143.648 Y125.173 E13.2767
G1 X143.531 Y126.283 E13.31382
G1 X143.481 Y126.595 E13.32433
G1 X143.26 Y127.63 E13.35953
G1 X143.157 Y128.013 E13.37272
G1 X142.858 Y128.945 E13.40528
G1 X142.732 Y129.281 E13.41721
G1 X142.347 Y130.174 E13.44956
G1 X142.183 Y130.51 E13.46199
G1 X141.688 Y131.408 E13.4961
G1 X141.491 Y131.726 E13.50854
G1 X140.945 Y132.52 E13.54059
G1 X140.731 Y132.802 E13.55236
G1 X140.207 Y133.437 E13.57975
G1 X140.071 Y133.589 E13.58653
G1 X139.594 Y134.088 E13.60949
G1 X139.344 Y134.332 E13.62111
G1 X138.789 Y134.835 E13.64602
G1 X138.631 Y134.968 E13.65289
G1 X138.05 Y135.423 E13.67744
G1 X137.759 Y135.634 E13.68939
G1 X136.859 Y136.216 E13.72504
G1 X136.515 Y136.414 E13.73824
G1 X135.646 Y136.861 E13.77074
G1 X135.307 Y137.015 E13.78313
G1 X134.348 Y137.393 E13.81741
G1 X134.007 Y137.508 E13.82938
G1 X133.134 Y137.76 E13.8596
G1 X132.785 Y137.844 E13.87154
G1 X131.737 Y138.039 E13.907
G1 X131.352 Y138.09 E13.91991
G1 X130.589 Y138.162 E13.9454
G1 X130.377 Y138.174 E13.95247
G1 X129.935 Y138.189 E13.96718
G1 X129.172 Y138.199 E13.99256
G1 X129.033 Y138.2 E13.99718
G1 X109.445 Y138.19 E14.64868
G1 X108.945 Y138.177 E14.66531
G1 X108.32 Y138.146 E14.68613
G1 X107.212 Y138.031 E14.72318
G1 X106.906 Y137.982 E14.73349
G1 X105.87 Y137.76 E14.76872
G1 X105.487 Y137.657 E14.78192
G1 X104.555 Y137.358 E14.81447
G1 X104.219 Y137.232 E14.82641
G1 X103.304 Y136.836 E14.85957
G1 X102.966 Y136.67 E14.87209
G1 X102.098 Y136.191 E14.90507
G1 X101.781 Y135.995 E14.91746
G1 X100.902 Y135.386 E14.95303
G1 X100.504 Y135.078 E14.96977
G1 X100.108 Y134.755 E14.98676
G1 X98.352 Y133.249 E15.06371
G1 X96.336 Y131.624 E15.14983
G1 X96.187 Y131.502 E15.15623
G1 X95.891 Y131.254 E15.16908
G1 X95.418 Y130.831 E15.19018
G1 X95.16 Y130.586 E15.20202
G1 X94.326 Y129.694 E15.24263
G1 X94.081 Y129.398 E15.25541
G1 X93.537 Y128.677 E15.28545
G1 X93.223 Y128.191 E15.3047
G1 X93.082 Y127.959 E15.31373
G1 X92.647 Y127.168 E15.34375
G1 X92.425 Y126.686 E15.3614
G1 X92.267 Y126.318 E15.37472
G1 X91.948 Y125.473 E15.40476
G1 X91.803 Y124.991 E15.4215
G1 X91.735 Y124.743 E15.43006
G1 X91.535 Y123.863 E15.46007
G1 X91.453 Y123.332 E15.47794
G1 X91.407 Y122.97 E15.49008
G1 X91.328 Y121.896 E15.5259
G1 X91.303 Y120.691 E15.56598
G1 X91.301 Y120.481 E15.57297
G1 X91.3 Y114.081 E15.78583
G1 X91.301 Y113.922 E15.79112
G1 X91.315 Y113.015 E15.82129
G1 X91.402 Y111.835 E15.86065
G1 X91.468 Y111.336 E15.87739
G1 X91.626 Y110.446 E15.90745
G1 X91.79 Y109.811 E15.92927
G1 X91.859 Y109.575 E15.93744
G1 X92.296 Y108.367 E15.98017
G1 X92.437 Y108.043 E15.99192
G1 X92.834 Y107.232 E16.02196
G1 X93.121 Y106.739 E16.04093
G1 X93.32 Y106.418 E16.05349
G1 X93.829 Y105.672 E16.08353
G1 X94.492 Y104.876 E16.11798
G1 X94.813 Y104.528 E16.13373
G1 X95.454 Y103.892 E16.16376
G1 F1800 E15.56376
;MESH:R.stl
G0 F6000 X103.973 Y110.097
G0 X104.215 Y111.08
G0 X106.7 Y111.365
;TYPE:WALL-INNER
G1 F1800 E16.16376
G1 F1200 X106.7 Y123.635 E16.57187
G1 X109.465 Y126.4 E16.70192
G1 X129.535 Y126.4 E17.36945
G1 X132.2 Y123.735 E17.49481
G1 X132.2 Y111.265 E17.90956
G1 X129.535 Y108.6 E18.03491
G1 X109.465 Y108.6 E18.70245
G1 X106.7 Y111.365 E18.8325
G0 F6000 X107.1 Y111.531
;TYPE:WALL-OUTER
G1 F1200 X107.1 Y123.469 E19.22956
G1 X109.631 Y126 E19.34861
G1 X129.369 Y126 E20.0051
G1 X131.8 Y123.569 E20.11945
G1 X131.8 Y111.431 E20.52316
G1 X129.369 Y109 E20.63751
G1 X109.631 Y109 E21.29399
G1 X107.1 Y111.531 E21.41304
G0 F6000 X106.694 Y111.363
G0 X106.964 Y123.525
G0 X107.108 Y125.175
;TYPE:WALL-INNER
G1 F1200 X107.216 Y125.283 E21.41812
G1 X107.315 Y125.382 E21.42278
G1 X107.461 Y125.528 E21.42965
G1 X107.614 Y125.681 E21.43685
G1 X107.719 Y125.786 E21.44178
G1 X107.896 Y125.963 E21.45011
G1 X108.056 Y126.123 E21.45764
G1 X108.224 Y126.291 E21.46554
G1 X108.322 Y126.389 E21.47015
G1 X108.189 Y126.326 E21.47065
G1 X107.977 Y126.202 E21.47244
G1 X107.792 Y126.067 E21.47496
G1 X107.607 Y125.899 E21.47812
G1 X107.504 Y125.791 E21.48013
G1 X107.367 Y125.623 E21.48273
G1 X107.249 Y125.448 E21.4851
G1 X107.178 Y125.322 E21.48607
G1 X107.108 Y125.175 E21.48665
